X:1
T:Tröstet mein Volk
T:Edward Karl Nössler
T:Tröstet mein Volk
T:Op. 39
T:CPDL - Creative Commons Attribution Non Commercial 3.0
T:CPDL - Creative Commons Attribution Non Commercial 3.0
T:CPDL - Creative Commons Attribution Non Commercial 3.0
T:CPDL - Creative Commons Attribution Non Commercial 3.0
C:Edward Karl Nössler
Z:CPDL - Creative Commons Attribution Non Commercial 3.0
%%score [ ( 1 2 ) ( 3 4 ) 5 ( 6 7 ) ]
L:1/8
Q:1/4=88
M:4/4
K:E
V:1 treble nm="S"
V:2 treble 
V:3 treble nm="A"
V:4 treble 
V:5 treble-8 nm="T"
V:6 bass nm="B"
V:7 bass 
V:1
"^In ruhiger Bewegung""^Solo (kleiner Chor)"!<(! e4!<)!!>(! d2!>)! z2 |!<(! e4!<)!!>(! B2!>)! z2 | %2
w: Trös- tet,|trös- tet,|
 (!>!c2 B2) A2 G2 | F8 |!p! F6 F2 |!<(! G8 | ^A6 B2!<)! | B8 |!f!"^Tutti" e4 d2 z2 | %9
w: trös- * tet mein|Volk,|spricht der|Herr,|eu- er|Gott.|Trös- tet,|
!<(! (e2 fg)!<)! B4 | (!>!e2 B2) cB AG | F8 |!p! G6 ^A2 | B6"^cresc." c2 | (d2 e2 f4) | e6 d2 | %16
w: trös- * * tet,|trös- * tet * mein *|Volk,|spricht der|Herr, der|Herr, _ _|eu- er|
 d8- | d2 z2 z4 | z8 | z8 | z8 | z8 |!mf! B4 B3 B |!<(! e4 d4!<)! | !^!f8 | d8 |: z8 | z8 | z8 | %29
w: Gott.|_|||||sa- get der|Toch- ter|Zi-|on:||||
 z8 |!p! c4!<(! A2 c2!<)! | (f2 g2 e2) G2 | B6 A2 | G4 z4 | z4 d4 | B4 G4 | z4 f4 | d4 B4 | %38
w: |Sie- he, dein|Kö- * * nig|kommt zu|dir,|sanft-|mü- tig,|sanft-|mü- tig,|
"^ruhig"!<(! (e4 f4)!<)! | g2 e2!p! G2 A2 |1!>(! B8!>)! | B6 z2 :|2 (B4 c4 || B8) | B4 z4 | z8 | %46
w: sanft- *|mü- tig und ein|Hel-|fer.|Hel- *||fer.||
 z8 | z2!mf! B4 A2 | GF E2!f! e3 e | d2 e2 f3 e | d2 e2 G2 A2 | B8 | B4 e3 e | c2 e2 f3 e | %54
w: |Hal- le-|lu- * ja, hal- le-|lu- ja, hal- le-|lu- ja, hal- le-|lu-|ja, hal- le-|lu- ja, hal- le-|
 d2 e2 !>!e2 !>!e2 |!ff! e8 | d8 | !fermata!e8 |] %58
w: lu- ja, hal- le-|lu-||ja,|
V:2
 x8 | x8 | x8 | x8 | x8 | x8 | x8 | x8 | x8 | x8 | x8 | x8 | x8 | x8 | x8 | x8 | x8 | x8 | x8 | %19
 x8 | x8 | x8 | x8 | ^A4 B4 | c8 | B8 |: x8 | x8 | x8 | x8 | x6 A2 | (c2 d2 B2) G2 | (G4 F2) F2 | %33
 x8 | x8 | x8 | x8 | x8 | x8 | x8 |1 x8 | x8 :|2 x8 || x8 | x8 | x8 | x8 | x8 | x8 | x8 | x8 | x8 | %52
 x8 | x8 | x8 | x8 | x8 | x8 |] %58
V:3
!<(! G4!<)!!>(! A2!>)! z2 |!<(! G4!<)!!>(! E2!>)! z2 | (!>!D2 E2) F2 E2 | D8 |!p! F4 D4 | %5
w: |||||
!<(! (E2 G4 F2) | F4 F4!<)! | (F2 D2 E2 A2) |!f! G4 A2 z2 |!<(! B4!<)! B4 | (!>!B2 G2) AG FE | D8 | %12
w: |||||||
!p! (E2 G4) G2 | (G4"^cresc." B4) | B8- | (B2 ^AG) A4 | B8- | B2 z2 z4 | %18
w: |Herr, _|eu-|* * * er|Gott.|_|
"^Bestimmte Viertel" B,4 B,3 B, | C4 C4 | (E4 F4) | G8 |!mf! G4 F3 F |!<(! F4 F4!<)! | %24
w: Sa- get der|Toch- ter|Zi- *|on,|||
 (!^!B4 ^A4) | F8 |:!p! C4!<(! C2 C2!<)! | (A2 G2 F2) E2 | (D4 E2) F2 | F8 |!p! A4!<(! A2 F2!<)! | %31
w: ||Sie- he, dein|Kö- * * nig|kommt _ zu|dir,||
 (A2 B2 G2) E2 | (D2 E2)"^zu" F4 | E4 z4 | z4 F4 | G4 G4 | z4 ^A4 | B4 F4 |!<(! (B4 A4)!<)! | %39
w: ||||||||
 G2 G2!p! E2 E2 |1!>(! E4 D4!>)! | E6 z2 :|2 E8- || (E4 D4) | E4 z4 | z8 | z4!mf! E3 E | %47
w: |||Hel-||fer.||Hal- le-|
 DC B,2 C2 D2 | E2 E2!f! B2 G2 | A2 G2 A3 G | F2 E2 E2 A2 | F8 | G4 G3 G | A2 G2 A3 G | %54
w: lu- * ja, hal- le-|lu- ja, * *||||||
 F2 E2 !>!F2 !>!F2 |!ff! G8 | F4 G2 A2 | !fermata!G8 |] %58
w: ||||
V:4
 x8 | x8 | x8 | x8 | x8 | x8 | x8 | x8 | x8 | x8 | x8 | x8 | x8 | x8 | x8 | x8 | x8 | x8 | x8 | %19
 x8 | x8 | x8 | E4 D3 D | C4 B,4 | F8 | B,8 |: x8 | x8 | x8 | x8 | x8 | x8 | x8 | x8 | x8 | x8 | %36
 x8 | x8 | x8 | x8 |1 x8 | x8 :|2 x8 || x8 | x8 | x8 | x8 | x8 | x8 | x8 | x8 | x8 | x8 | x8 | x8 | %55
 x8 | x8 | x8 |] %58
V:5
!<(! B4!<)!!>(! B2!>)! z2 |!<(! B4!<)!!>(! B2!>)! z2 | (!>!A2 B2) B2 B2 | B8 |!p! B4 B4 | %5
w: Trös- tet,|trös- tet,|trös- * tet mein|Volk,|spricht der|
!<(! B2 B2 e4- | e2 d2 c4!<)! | (d2 B6) |!f! B4 B2 z2 |!<(! B4!<)! (d2 ef) | !>!e4 B2 B2 | %11
w: Herr,~ eu- *|* * er|Gott. _|Trös- tet,|trös- tet, _ _|trös- tet mein|
 B4!p! B2 B2 | B4 e4 | (d4"^cresc." g4) | (f2 e2 ^d2 =d2 | c4) f4 | f8- | f2 z2 z4 |!mf! B4 B3 B | %19
w: Volk, spricht~ der|Herr, der|Herr, _|eu- * * *|* er|Gott.|_|Sa- get der|
 c4 c4 | (B4 c2 d2) | e8 | z8 | z8 | z8 | z8 |:!p! c4!<(! c2 c2!<)! | c6 c2 | (c2 B4) e2 | d8 | %30
w: Toch- ter|Zi- * *|on:|||||||||
 z8 |!<(! B8-!<)! | (B2 c2) d4 | e4!p! [Gc]4 | ^A4 (A2 d2) | (d4 e4) | c4 (c2 f2) | (f4 d4) | %38
w: |kommt|* * zu|dir, sanft-|mü- tig, _|sanft- *|mü- tig, _|sanft- *|
!<(! (B4 c2 d2)!<)! | e2 B2!p! c2 E2 |1!>(! (G4 F4)!>)! | G6 z2 :|2 G4 =G4 || F2 G2 A4 | G4 z4 | %45
w: mü- * *|* tig und ein|Hel- *|fer.|Hel- *||fer.|
 z2!mf! B4 A2 | GF E2 B2 G2 | B2 f2 e2 (B2 | B2) A2!f! B2 B2 | B2 B2 B3 B | B2 B2 c2 e2 | e4 d4 | %52
w: Hal- le-|lu- * ja, hal- le-|lu- * * *|* ja, hal- le-|lu- ja, hal- le-|lu- ja, hal- le-|lu- *|
 e4 B3 B | B2 B2 B3 B | B2 B2 !>!c2 !>!c2 |!ff! B8- | B8 | !fermata!B8 |] %58
w: ja, hal- le-|lu- ja, hal- le-|lu- ja, hal- le-|lu-||ja.|
V:6
!<(! E,4!<)!!>(! F,2!>)! z2 |!<(! E,4!<)!!>(! G,2!>)! z2 | (!>!F,2 G,2) D,2 E,2 | B,,8 | %4
w: ||||
!p! D,4 B,,4 |!<(! (E,4 C,4) | F,4 F,4!<)! | (B,2 A,2 G,2 F,2) |!f! E,4 F,2 z2 |!<(! G,4!<)! A,4 | %10
w: |Herr, _|eu- er||||
 (!>!G,2 E,2) D,2 E,2 | B,,4!p! B,2 B,2 | (E,2 D,2) C,4 | (G,2 F,2"^cresc." E,4) | F,8 | F,8 | %16
w: |||Herr, _ _|eu-|er|
 B,,8- | B,,2 z2 z4 |!mf! B,4 B,3 B, | B,4 A,4 | (G,4 A,4) | B,8 | z8 | z8 | z8 | z8 |: %26
w: Gott.|_|||||||||
!p! A,4!<(! A,2 A,2!<)! | (A,2 B,2 A,2) G,2 | (F,4 G,2) B,2 | B,8 | z8 | z8 | z8 | z4!p! [C,E,]4 | %34
w: Sie- he, dein|Kö- * nig _|kommt * zu|dir,|||||
 F,4 D,4 | ((G,4 [E,B,]4)) | ^A,4 F,4 | (B,4 =A,4) |!<(! (G,4 F,4!<)! | E,2) E,2!p! C,2 C,2 |1 %40
w: ||||||
!>(! B,,8!>)! | E,,6 z2 :|2 B,,4 ^A,,4 || B,,8 | E,,4!mf! E,3 E, | D,C, B,,2 C,2 D,2 | %46
w: ||||* Hal- le-|lu- * ja, hal- le-|
 E,2 F,2 G,2 E,2 | B,2 A,2 G,2 F,2 | E,2 F,2!f! G,2 E,2 | F,2 E,2 D,3 E, | A,2 G,2 C2 C2 | %51
w: lu- * * ja,|hal- * * le-|lu- ja, * *|||
 B,4 B,,4 | E,4 E,3 E, | F,2 E,2 D,3 E, | A,2 G,2 !>!A,2 !>!A,2 |!ff! B,4 B,,4- | B,,8 | %57
w: ||||||
 !fermata![E,,E,]8 |] %58
w: |
V:7
 x8 | x8 | x8 | x8 | x8 | x8 | x8 | x8 | x8 | x8 | x8 | x8 | x8 | x8 | x8 | x8 | x8 | x8 | x8 | %19
 x8 | (G,4 F,4) | E,8 | x8 | x8 | x8 | x8 |: A,4 A,2 G,2 | F,4 A,,4 | B,,6 B,,2 | x8 | x8 | x8 | %32
 x8 | x8 | x8 | x8 | x8 | x8 | x8 | x8 |1 x8 | x8 :|2 x8 || x8 | x8 | x8 | x8 | x8 | x8 | x8 | x8 | %51
 x8 | x8 | x8 | x8 | x8 | x8 | x8 |] %58

